(/Applications/pcbgcode.repo/pcb-gcode.ulp)
(Copyright 2005 - 2012 by John Johnson)
(See readme.txt for licensing terms.)
(This file generated from the board:)
(.../eurorack/808-Output/808_output.brd)
(Current profile is .../pcbgcode.repo/profiles/mach.pp  )
(This file generated 4/28/16 7:40 PM)
(Settings from pcb-machine.h)
(spindle on time = 0.0000)
(spindle speed = 20000.0000)
(tool change at 0.0000  0.0000  1.5000  )
(feed rate xy = F0     )
(feed rate z  = F20    )
(Z Axis Settings)
(  High     Up        Down     Drill)
(0.2500  	0.0500  	-0.0035 	-0.0750 )
(Settings from pcb-defaults.h)
(isolate min = 0.0060)
(isolate max = 0.0200)
(isolate step = 0.0015)
(Generated bottom outlines, bottom drill, )
(Unit of measure: inch)
( Tool|       Size       |  Min Sub |  Max Sub |   Count )
( T01 | 0.800mm 0.0315in | 0.0000in | 0.0000in |       0 )
( T02 | 0.813mm 0.0320in | 0.0000in | 0.0000in |       0 )
( T03 | 0.900mm 0.0354in | 0.0000in | 0.0000in |       0 )
( T04 | 1.000mm 0.0394in | 0.0000in | 0.0000in |       0 )
( T05 | 1.016mm 0.0400in | 0.0000in | 0.0000in |       0 )
( T06 | 1.700mm 0.0669in | 0.0000in | 0.0000in |       0 )
(Inch Mode)
G20
(Absolute Coordinates)
G90
S20000
G00 Z0.2500  
G00 X0.0000  Y0.0000  
M03
G04 P0.000000
M05
G00 Z1.5000  
M06 T01  ; 0.0315  
G01 Z0.0000  F20    
M06 
G00 Z0.0500  
M03
G04 P0.000000
G82 X-0.9000 Y1.2016  Z-0.0750 F20    R0.0500  P0.020000
G82 X-0.9000 Y1.3984  
G82 X-1.1250 Y1.3984  
G82 X-1.1250 Y1.2016  
M05
G00 Z1.5000  
G00 X0.0000  Y0.0000  
M06 T02  ; 0.0320  
G01 Z0.0000  F20    
M06 
G00 Z0.0500  
M03
G04 P0.000000
G82 X-0.2000 Y2.3000  Z-0.0750 F20    R0.0500  P0.020000
G82 X-0.3250 Y2.3000  
G82 X-0.4000 Y2.3000  
G82 X-0.4000 Y2.2000  
G82 X-0.4000 Y2.1000  
G82 X-0.5000 Y2.0000  
G82 X-0.7000 Y2.0000  
G82 X-0.7000 Y2.1000  
G82 X-0.7000 Y2.2000  
G82 X-0.7000 Y2.3000  
G82 X-0.7000 Y2.4000  
G82 X-0.8000 Y2.3000  
G82 X-0.8000 Y2.2000  
G82 X-0.9000 Y2.1750  
G82 X-0.9000 Y2.0500  
G82 X-0.9000 Y1.9500  
G82 X-0.9500 Y1.7000  
G82 X-0.8500 Y1.7000  
G82 X-0.8000 Y1.5500  
G82 X-0.7000 Y1.5000  
G82 X-0.7000 Y1.3500  
G82 X-0.7000 Y1.2000  
G82 X-0.7000 Y1.0500  
G82 X-0.7000 Y0.9000  
G82 X-0.7000 Y0.7500  
G82 X-0.7000 Y0.6000  
G82 X-0.7000 Y0.4500  
G82 X-0.7000 Y0.3000  
G82 X-0.7000 Y0.1500  
G82 X-0.5000 Y0.1500  
G82 X-0.5000 Y0.3000  
G82 X-0.5000 Y0.4500  
G82 X-0.5000 Y0.6000  
G82 X-0.5000 Y0.7500  
G82 X-0.5000 Y0.9000  
G82 X-0.5000 Y1.0500  
G82 X-0.5000 Y1.2000  
G82 X-0.5000 Y1.3500  
G82 X-0.5000 Y1.5000  
G82 X-0.5000 Y1.6500  
G82 X-0.7000 Y1.6500  
G82 X-1.0000 Y1.5500  
G82 X-1.0500 Y1.6000  
G82 X-1.1000 Y1.7500  
G82 X-1.2000 Y1.7500  
G82 X-1.2500 Y1.6000  
G82 X-0.9000 Y2.4750  
G82 X-0.7750 Y2.5250  
G82 X-0.8250 Y2.6250  
G82 X-0.5750 Y2.5250  
G82 X-0.5250 Y2.6250  
G82 X-0.4000 Y2.6000  
G82 X-0.4000 Y2.7000  
G82 X-0.2000 Y2.6000  
G82 X-0.3250 Y2.4000  
G82 X-0.4000 Y2.4000  
G82 X-0.2500 Y2.1500  
G82 X-0.2500 Y2.0500  
G82 X-0.3500 Y2.9500  
G82 X-0.4500 Y2.9500  
M05
G00 Z1.5000  
G00 X0.0000  Y0.0000  
M06 T03  ; 0.0354  
G01 Z0.0000  F20    
M06 
G00 Z0.0500  
M03
G04 P0.000000
G82 X-0.4750 Y1.9000  Z-0.0750 F20    R0.0500  P0.020000
G82 X-0.7750 Y1.9000  
G82 X-1.0000 Y2.3000  
G82 X-1.0000 Y2.6000  
M05
G00 Z1.5000  
G00 X0.0000  Y0.0000  
M06 T04  ; 0.0394  
G01 Z0.0000  F20    
M06 
G00 Z0.0500  
M03
G04 P0.000000
G82 X-1.0750 Y2.1000  Z-0.0750 F20    R0.0500  P0.020000
G82 X-1.1750 Y2.1000  
M05
G00 Z1.5000  
G00 X0.0000  Y0.0000  
M06 T05  ; 0.0400  
G01 Z0.0000  F20    
M06 
G00 Z0.0500  
M03
G04 P0.000000
G82 X-0.9500 Y0.1000  Z-0.0750 F20    R0.0500  P0.020000
G82 X-0.9500 Y0.2000  
G82 X-0.9500 Y0.3000  
G82 X-0.9500 Y0.4000  
G82 X-0.9500 Y0.5000  
G82 X-0.9500 Y0.6000  
G82 X-0.9500 Y0.7000  
G82 X-0.9500 Y0.8000  
G82 X-1.0500 Y0.8000  
G82 X-1.0500 Y0.7000  
G82 X-1.0500 Y0.6000  
G82 X-1.0500 Y0.5000  
G82 X-1.0500 Y0.4000  
G82 X-1.0500 Y0.3000  
G82 X-1.0500 Y0.2000  
G82 X-1.0500 Y0.1000  
M05
G00 Z1.5000  
G00 X0.0000  Y0.0000  
M06 T06  ; 0.0669  
G01 Z0.0000  F20    
M06 
G00 Z0.0500  
M03
G04 P0.000000
G82 X-0.2000 Y0.1205  Z-0.0750 F20    R0.0500  P0.020000
G82 X-0.2000 Y0.2764  
G82 X-0.2000 Y0.4323  
G82 X-0.2000 Y0.5882  
G82 X-0.2000 Y0.7441  
G82 X-0.2000 Y0.9000  
G82 X-0.2000 Y1.0559  
G82 X-0.2000 Y1.2118  
G82 X-0.2000 Y1.3677  
G82 X-0.2000 Y1.5236  
G82 X-0.2000 Y1.6795  
G82 X-0.8441 Y2.9500  
G82 X-1.0000 Y2.9500  
G82 X-1.1559 Y2.9500  
T01 
G00 Z0.2500  
M05
M02
